public/svgs/solid/ruler-vertical.svg

<svg xmlns="http://www.w3.org/2000/svg" viewBox="0 0 256 512"><!-- Font Awesome Pro 6.0.0-alpha2 by @fontawesome - https://fontawesome.com License - https://fontawesome.com/license (Commercial License) --><path d="M160 112C160 120.801 167.201 128 176 128H256V192H176C167.201 192 160 199.199 160 208S167.201 224 176 224H256V288H176C167.201 288 160 295.199 160 304S167.201 320 176 320H256V384H176C167.201 384 160 391.199 160 400S167.201 416 176 416H256V480C256 497.6 241.6 512 224 512H32C14.4 512 0 497.6 0 480V32C0 14.4 14.4 0 32 0H224C241.6 0 256 14.4 256 32V96H176C167.201 96 160 103.199 160 112Z"/></svg>

<svg xmlns="http://www.w3.org/2000/svg" viewBox="0 0 256 512"><!--! Font Awesome Pro 6.5.1 by @fontawesome - https://fontawesome.com License - https://fontawesome.com/license (Commercial License) Copyright 2023 Fonticons, Inc. --><path d="M0 48C0 21.5 21.5 0 48 0H208c26.5 0 48 21.5 48 48V96H176c-8.8 0-16 7.2-16 16s7.2 16 16 16h80v64H176c-8.8 0-16 7.2-16 16s7.2 16 16 16h80v64H176c-8.8 0-16 7.2-16 16s7.2 16 16 16h80v64H176c-8.8 0-16 7.2-16 16s7.2 16 16 16h80v48c0 26.5-21.5 48-48 48H48c-26.5 0-48-21.5-48-48V48z"/></svg>
